X: 23526
T: Liddell's
R: hornpipe
M: 4/4
K: Gmajor
d>c|:B>GB>d g2 f>g|a>fg>e d2 e>f|g>fg>f e>ba>g|f2 d2 d2 d>c|
B>GB>d g2 f>g|a>fg>e d2 c>B|c>ed>c B>AG>F|1 A2 G2 G2 d>c:|2 A2 G2 G2 f>g||
|:a>fd>f a>fd>f|b>ge>g b>ge>f|g>fg>f e>ba>g|f2 d2 d2 g>f|
e>gd>g c>gB>g|e>gd>g c>gB>g|c>ed>c B>AG>F|1 A2 G2 G2 f>g:|2 A2 G2 G2||

